X:19026
T:Starry Nights of Shetland
T:Starry Night in Shetland
R:Waltz
C:Trad.
O:Scotland
Z:Paul Hardy's Session Tunebook 2015 (see www.paulhardy.net). Creative Commons cc by-nc-sa licenced.
M:3/4
L:1/4
Q:1/4=150
K:D
A|"D"f2d|ABA|"Em"G2 G|"A"c2B|"A"A2c|"A7"e2A|"D"f>gf/e/|d2A|
"D"f2d|ABA|"Em"G2 G|"A"c2B|Ac e/f/|"A7"gBc|"D"d>ed/c/|d2:|
|:e/f/|"G"gBg|gBg|"D"fAf|fAf|fdf|"Bm"agf|"Em"e>fe|"A7"ede|
"D"f2d|ABA|"Em"G2 G|"A"c2B|Ac e/f/|"A7"gBc|"D"d3-|d2:|

